X: 17189
T: Henry Blood's
R: reel
M: 4/4
K: Aminor
|:A2EA GEDE|GDEG AEAc|A2cA GEDE|GEED EAAc|
A2EA GEDE|GDEG AEAc|dcBG AGED|EDEG EAA2:|
|:AEEA Acde|AEAc dGBd|cEED AEAc|dcBG AEAc|
AEED AEAc|dGBd e2Ac|dcBG AGED|EDEG EAA2:|
|:e2 AE Acde|eaag edeg|a3g edcA|GEED EAcd|
ecdB cABG|AEAc dBGE|A3c d3e|cAGE GA A2:|

